frontend/public/assets/material-icons/folder-vuex-store-open.svg

<svg xmlns="http://www.w3.org/2000/svg" viewBox="0 0 32 32">
  <path d="M28.96692,12H9.44152a2,2,0,0,0-1.89737,1.36754L4,24V10H28a2,2,0,0,0-2-2H15.1241a2,2,0,0,1-1.28038-.46357L12.5563,6.46357A2,2,0,0,0,11.27592,6H4A2,2,0,0,0,2,8V24a2,2,0,0,0,2,2H26l4.80523-11.21213A2,2,0,0,0,28.96692,12Z" style="fill: #009688"/>
  <g>
    <path d="M14,29.98876,21.2,15.609,23,19.11657v3.688l-3.57722,7.18423ZM32,30,24.8,15.62031,23,19.12785v3.688L26.56582,30Z" style="fill: #41b883"/>
    <path d="M14,12l4.5,9,2.7-5.391L19.4,12Zm18,0-4.5,9-2.7-5.391L26.6,12Z" style="fill: #35495e"/>
  </g>
</svg>

<svg xmlns="http://www.w3.org/2000/svg" viewBox="0 0 32 32"><path fill="#009688" d="M28.967 12H9.442a2 2 0 0 0-1.898 1.368L4 24V10h24a2 2 0 0 0-2-2H15.124a2 2 0 0 1-1.28-.464l-1.288-1.072A2 2 0 0 0 11.276 6H4a2 2 0 0 0-2 2v16a2 2 0 0 0 2 2h22l4.805-11.212A2 2 0 0 0 28.967 12"/><g data-mit-no-recolor="true"><path fill="#41b883" d="m14 29.989 7.2-14.38 1.8 3.508v3.688l-3.577 7.184ZM32 30l-7.2-14.38-1.8 3.508v3.688L26.566 30Z"/><path fill="#35495e" d="m14 12 4.5 9 2.7-5.391L19.4 12Zm18 0-4.5 9-2.7-5.391L26.6 12Z"/></g></svg>
